!!!OTL: 816a. Fenstergang.
!!!ARE: Europa, Mitteleuropa, Deutschland, Brandenburg, Oderbruch; Coethen
!!!SCT: E0816
!!!TXL: @@DE
!!!YEM: Copyright 1995, estate of Helmut Schaffrath.
**kern	**text
*ICvox	*
*M3/4	*
*k[b-]	*
*F:	*
!LO:TX:a:t=Mäßig.	!
!LO:TX:a:t=Mel. aus Cöthen u. Brandenburg (Oderbruch).	!
{8c	Jch
=1	=1
8f	kann
8a	nicht
4.cc	ſitʒ'n,
8a	ich
=2	=2
8g	kann
8a	nicht
4.b-}	ſteh'n,
{8cc	ich
=3	=3
8a	muß
8g	ʒu
8fL	mei-
8a	.
8ccJ	.
8a	-nem
=4	=4
8a	Schätʒchen
8g	.
4g	gehn,
8r}	.
{8f	ʒu
=5	=5
8f	mei-
8f	-nem
(4dd	Schätʒ-
8gg)	.
8dd	-chen
=6	=6
8dd	muß
8cc	ich
4.cc}	gehn,
{8a	und
=7	=7
8g	wenn
8a	ich
8b-L	ſollt
8dd	.
8ccJ	.
8e	vorm
=8	=8
8g	Fen-
8f	-ſter
4f	ſtehn.
8r}	.
==	==
!!!AGN: Kilt - Lied
!!!ONB: ESAC (Essen Associative Code) Database: ERK2
!!!AMT: simple triple
!!!AIN: vox
!!!EED: Helmut Schaffrath
!!!EEV: 1.0
!!!GTL: Tagelieder und Kiltgesaenge
!!!URL-scan: https://rosdok.uni-rostock.de/mcrviewer/recordIdentifier/rosdok_ppn745177662/iview2/phys_0626.iview2?x=191.0544085554891&y=237.89591377507895&scale=0.7029437510502773&rotation=0&layout=singlePageLayout
!!!ENC: Anna Maria Matuszewska
!!!EEV: 2024/12/18
*-	*-
